app/dist/common/images/cisco.svg

<svg height="18" width="18" xmlns="http://www.w3.org/2000/svg"><path d="m0 0h18v18h-18z" fill="#1ba0d7"/><path d="m6 7v4m6-4v4m-1.5-2.4v1.6m-3-1.6v1.6m6-1.6v1.6m-9-1.6v1.6m-1.5-.7v.5m12-1v.8m-6-.8v.8" stroke="#fff" stroke-linecap="round" stroke-width=".75"/></svg>

<!-- by TradingView --><svg width="18" height="18" xmlns="http://www.w3.org/2000/svg"><path fill="#1BA0D7" d="M0 0h18v18H0z"/><path d="M6 7v4M12 7v4M10.5 8.6v1.6M7.5 8.6v1.6M13.5 8.6v1.6M4.5 8.6v1.6M3 9.5v.5M15 9v.8M9 9v.8" stroke="#fff" stroke-width=".75" stroke-linecap="round"/></svg>
